X:1
%
T:Jeffrey's Quickstep
C:J. Scott Skinner
M:2/4
L:1/8
R:Quickstep
N:"To W.D Jeffrey, Poet."
B:Skinner - The Logie Collection (1888, p. 116)
Z:AK/Fiddler's Companion
K:A
A/F/|EA/c/ ec/A/|ff ec/B/|Aa/f/ e/c/A/B/|{AB}cBB A/F/|
EA/c/ ec/A/|ff ec/B/|Aa/f/ e/c/B/A/|{Ac}BAA:|
|:c/B/|Aa/f/ ec/A/|ff fe/c/|Aa/f/ e/c/{c}B/A/|{AB}c(B B/).d/.c/.B/|
A/A/a/f/ e/c/{c}B/A/|f/f/f ec/B/|A/<A/ a/<f/ e/<e/ c/A/|{Ac}BAA:|

